!!!!SEGMENT: Con2012-Cum_inducerent.krn
!!!id: Con2012
!!!AGN: Motet
!!!voices: 4
!!!COM: Jean Conseil
!!!OTL: Cum inducerent
**kern	**kern	**kern	**kern
*part4	*part3	*part2	*part1
*staff4	*staff3	*staff2	*staff1
*I"Bassus	*I"Tenor	*I"Altus	*I"Superius
*I'B	*I'T	*I'A	*I'S
*clefF4	*clefGv2	*clefGv2	*clefG2
*k[b-]	*k[b-]	*k[b-]	*k[b-]
*F:	*F:	*F:	*F:
*M2/1	*M2/1	*M2/1	*M2/1
*met(C|)	*met(C|)	*met(C|)	*met(C|)
!!Section: Prima pars: Cum inducerent
!!!OMD: Prima pars: Cum inducerent
=1	=1	=1	=1
0r	0r	0r	0f
=2	=2	=2	=2
0r	0r	0r	1f
.	.	.	[1cc
=3	=3	=3	=3
0r	0r	0c	2cc]
.	.	.	2cc
.	.	.	1cc
=4	=4	=4	=4
0r	0r	1c	2r
.	.	.	1cc
.	.	[1f	.
.	.	.	2cc
=5	=5	=5	=5
0r	0r	2f]	1dd
.	.	2f	.
.	.	1f	1cc
=6	=6	=6	=6
0r	0r	2r	2.a
.	.	1f	.
.	.	.	4b-y
.	.	.	4cc
.	.	.	4dd
.	.	2f	[2cc
=7	=7	=7	=7
0r	0r	1f	4cc]
.	.	.	4b-y
.	.	.	4cc
.	.	.	4a
.	.	1e-X	2b-y
.	.	.	2cc
=8	=8	=8	=8
0r	0r	2d	2.f
.	.	1f	.
.	.	.	4g
.	.	.	4a
.	.	.	4b-y
.	.	4e	[2cc
.	.	4d	.
=9	=9	=9	=9
0r	0r	2.c	2cc]
.	.	.	4b-y
.	.	4d	4a
.	.	4e	2g
.	.	4f	.
.	.	[2g	[2b-y
=10	=10	=10	=10
0r	0r	4g]	4b-]
.	.	4f	4a
.	.	4e	4g
.	.	4d	4f
.	.	1e	1g
=11	=11	=11	=11
0r	0r	1f	2r
.	.	.	2cc
.	.	2r	2cc
.	.	2f	2cc
=12	=12	=12	=12
0r	0r	1f	4dd
.	.	.	4cc
.	.	.	4dd
.	.	.	4ee
.	.	1f	1ff
=13	=13	=13	=13
0r	0r	2g	2ee
.	.	2f	2.dd
.	.	2.g	.
.	.	.	4cc
.	.	.	4b-y
.	.	4f	4a
=14	=14	=14	=14
0r	0r	2e	2g
.	.	2f	1cc
.	.	1d	.
.	.	.	2b-y
=15	=15	=15	=15
0r	0r	2c	2.cc
.	.	2.f	.
.	.	.	4b-y
.	.	.	4a
.	.	4e	4g
.	.	4d	[2b-y
.	.	4c	.
=16	=16	=16	=16
0r	0r	2d	4b-]
.	.	.	4a
.	.	2A	1a
.	.	2B-y	.
.	.	[2c	2g
=17	=17	=17	=17
0r	0F	4c]	2a
.	.	4B-y	.
.	.	4A	2.cc
.	.	4G	.
.	.	2F	.
.	.	.	4b-y
.	.	[2f	4a
.	.	.	4g
=18	=18	=18	=18
0r	1F	2f]	1.a
.	.	4e	.
.	.	4d	.
.	[1c	[1e	.
.	.	.	2g
=19	=19	=19	=19
0C	2c]	0e]	0g
.	2c	.	.
.	1c	.	.
=20	=20	=20	=20
1C	2r	0r	0r
.	1c	.	.
[1F	.	.	.
.	2c	.	.
=21	=21	=21	=21
2F]	1d	0r	0r
2F	.	.	.
1F	1c	.	.
=22	=22	=22	=22
2r	2.A	0r	0r
1F	.	.	.
.	4B-y	.	.
.	4c	.	.
.	4d	.	.
2F	[2c	.	.
=23	=23	=23	=23
1F	2c]	0r	0r
.	4B-y	.	.
.	4A	.	.
1E-X	2B-y	.	.
.	2c	.	.
=24	=24	=24	=24
2D	4F	0r	0r
.	4G	.	.
2.F	4A	.	.
.	4B-y	.	.
.	2c	.	.
4E	.	.	.
4D	[2d	.	.
4C	.	.	.
=25	=25	=25	=25
2BB-y	4d]	0r	0r
.	4c	.	.
2C	1c	.	.
1D	.	.	.
.	2BnXi	.	.
=26	=26	=26	=26
0C	1c	0r	0r
.	2r	.	.
.	2c	.	.
=27	=27	=27	=27
2r	2c	0r	0r
2F	2c	.	.
1F	4d	.	.
.	4c	.	.
.	4d	.	.
.	4e	.	.
=28	=28	=28	=28
1F	1f	0r	0r
1G	2e	.	.
.	[2d	.	.
=29	=29	=29	=29
2.F	2d]	0r	0r
.	4c	.	.
4G	4B-y	.	.
2A	2c	.	.
[2B-y	[2d	.	.
=30	=30	=30	=30
4B-]	2d]	0r	0r
4A	.	.	.
1A	2c	.	.
.	1B-y	.	.
2G	.	.	.
=31	=31	=31	=31
2.A	0A	0r	2r
.	.	.	2cc
4F	.	.	.
1F	.	.	2cc
.	.	.	2cc
=32	=32	=32	=32
0r	0r	2r	2dd
.	.	2f	2cc
.	.	2f	1ff
.	.	2f	.
=33	=33	=33	=33
0r	0r	2.g	2ee
.	.	.	1dd
.	.	4a	.
.	.	2b-y	.
.	.	[2a	[2cc
=34	=34	=34	=34
0r	2r	4a]	4cc]
.	.	4g	4b-y
.	2F	4f	4a
.	.	4e	4g
.	2F	2f	1a
.	2F	2f	.
=35	=35	=35	=35
2r	2c	1e	1g
2C	2c	.	.
2F	2.d	2.f	1r
2F	.	.	.
.	4e	4e	.
=36	=36	=36	=36
2F	1f	1c	0r
2F	.	.	.
2.G	2e	1r	.
.	[2d	.	.
4A	.	.	.
=37	=37	=37	=37
1B-y	2d]	0r	0r
.	4c	.	.
.	4B-y	.	.
2A	2c	.	.
2G	[2d	.	.
=38	=38	=38	=38
2F	4d]	0r	1r
.	4c	.	.
1G	4B-y	.	.
.	4A	.	.
.	2G	.	2r
4F	4A	.	2cc
4E	4G	.	.
=39	=39	=39	=39
2F	4A	2r	2dd
.	4B-y	.	.
2E	1c	2c	2ee
1D	.	2.f	1ff
.	2B-y	.	.
.	.	4g	.
=40	=40	=40	=40
1C	1.c	2a	2.ee
.	.	2.g	.
.	.	.	4cc
1G	.	.	2ee
.	.	4f	.
.	2B-y	2g	[2dd
=41	=41	=41	=41
1A	1c	2e	4dd]
.	.	.	4cc
.	.	2f	1cc
1G	1d	1g	.
.	.	.	2bnXi
=42	=42	=42	=42
2r	0c	4e	0cc
.	.	4d	.
1c	.	4e	.
.	.	4f	.
.	.	2g	.
2A	.	2a	.
=43	=43	=43	=43
2.B-y	0r	2g	1r
.	.	1f	.
8AL	.	.	.
8B-yJ	.	.	.
1c	.	.	2r
.	.	2e	[2cc
=44	=44	=44	=44
1F	0r	2.f	2cc]
.	.	.	2a
.	.	4e	.
2r	.	4d	1b-y
.	.	4c	.
2G	.	2d	.
=45	=45	=45	=45
2A	2r	2c	1cc
2F	2c	2.f	.
2.B-y	2.d	.	1f
.	.	4e	.
.	.	[2d	.
4A	4c	.	.
=46	=46	=46	=46
2F	4d	4d]	1r
.	4e	4c	.
2A	1f	1c	.
1G	.	.	2r
.	2e	2B-y	2g
=47	=47	=47	=47
1F	1f	2.c	2.a
.	.	4d	4b-y
1r	2e	2e	2cc
.	2d	2f	[2dd
=48	=48	=48	=48
2r	2.f	1F	4dd]
.	.	.	4cc
1F	.	.	2.cc
.	4e	.	.
.	2c	[1f	.
.	.	.	4b-y
2BB-y	[2d	.	[2b-y
=49	=49	=49	=49
1F	2d]	1f]	4b-]
.	.	.	4a
.	2c	.	1a
1G	1B-y	[1d	.
.	.	.	2g
=50	=50	=50	=50
0F	2A	2d]	1a
.	2.c	4c	.
.	.	4B-y	.
.	.	2.A	2r
.	4B-y	.	.
.	4A	.	[2cc
.	4G	4B-y	.
=51	=51	=51	=51
2r	2A	4c	4cc]
.	.	4F	4b-y
2.F	2F	1f	4a
.	.	.	4g
.	2.c	.	2a
4E	.	.	.
2C	.	2e	[2g
.	4B-y	.	.
=52	=52	=52	=52
2D	2A	1d	4g]
.	.	.	4f
2BB-y	2B-y	.	1f
1C	1G	1c	.
.	.	.	2e
=53	=53	=53	=53
0F	1F	0A	1f
.	1r	.	1r
=54	=54	=54	=54
0D	0F	0d	0f
=55	=55	=55	=55
1D	1A	1d	1f
[1C	[1c	[1e	[1g
=56	=56	=56	=56
1C]	1c]	1e]	1g]
1C	1c	1e	1g
=57	=57	=57	=57
1.BB-y	1.d	1.f	1.b-y
2BB-y	2d	2f	2b-y
=58	=58	=58	=58
2.F	2c	0f	2.a
.	1f	.	.
4G	.	.	4b-y
2A	.	.	2cc
2B-y	4e	.	[2dd
.	4d	.	.
=59	=59	=59	=59
2c	2e	1r	4dd]
.	.	.	4cc
2F	2f	.	1cc
1G	1d	[1g	.
.	.	.	2bnXi
=60	=60	=60	=60
1r	0c	2g]	[0cc
.	.	2e	.
[1c	.	2.e	.
.	.	4f	.
=61	=61	=61	=61
2c]	0r	2g	0cc]
2A	.	1a	.
2.A	.	.	.
.	.	4g	.
4B-y	.	4f	.
=62	=62	=62	=62
2c	0r	2e	0r
2.d	.	2f	.
.	.	2d	.
4c	.	.	.
4B-y	.	[2g	.
4A	.	.	.
=63	=63	=63	=63
2G	0r	2g]	0r
1B-y	.	4f	.
.	.	4e	.
.	.	4d	.
.	.	4c	.
2A	.	[2f	.
=64	=64	=64	=64
1G	0r	2f]	1r
.	.	2e	.
[1F	.	2.f	[1cc
.	.	4e	.
=65	=65	=65	=65
1F]	1.f	1c	2cc]
.	.	.	2b-y
1r	.	1r	2a
.	2e	.	2g
=66	=66	=66	=66
0r	2d	0r	2b-y
.	2c	.	1a
.	1d	.	.
.	.	.	4g
.	.	.	4f
=67	=67	=67	=67
1r	1c	1r	2e
.	.	.	2g
1F	2.A	1f	2a
.	.	.	[2cc
.	4B-y	.	.
=68	=68	=68	=68
1F	2c	1f	4cc]
.	.	.	4b-y
.	2d	.	1a
1G	1B-y	2.d	.
.	.	.	2g
.	.	4e	.
=69	=69	=69	=69
4D	2.A	4f	1a
4E	.	4g	.
4F	.	2.a	.
4G	4B-y	.	.
2A	2c	.	2r
.	.	4g	.
[2B-y	[2d	4f	2f
.	.	4e	.
=70	=70	=70	=70
2B-]	4d]	4d	1g
.	4c	4e	.
2A	1c	1f	.
1G	.	.	1b-y
.	2B-y	2e	.
=71	=71	=71	=71
1.F	2.c	2.f	2.a
.	4B-y	4e	8gL
.	.	.	8fJ
.	4A	4c	2a
.	4G	4d	.
2E	2B-y	2e	[2g
=72	=72	=72	=72
2F	2A	2c	4g]
.	.	.	4f
2D	2F	2B-y	1f
1C	1G	[1c	.
.	.	.	2e
=73	=73	=73	=73
1F	1.A	0c]	[0f
2r	.	.	.
2F	2F	.	.
=74	=74	=74	=74
2.A	1F	2r	1f]
.	.	2c	.
4B-y	.	.	.
1c	1r	2.e	1r
.	.	4f	.
=75	=75	=75	=75
2r	0r	1g	0r
1c	.	.	.
.	.	2r	.
4B-y	.	[2g	.
4A	.	.	.
=76	=76	=76	=76
2B-y	0r	2g]	0r
2c	.	2g	.
1F	.	2.a	.
.	.	4g	.
=77	=77	=77	=77
1c	0r	2a	0r
.	.	1g	.
1c	.	.	.
.	.	4f	.
.	.	4e	.
=78	=78	=78	=78
1B-y	0r	2f	0r
.	.	2g	.
2A	.	4c	.
.	.	4d	.
[2c	.	4e	.
.	.	4f	.
=79	=79	=79	=79
4c]	0r	2g	2r
4B-y	.	.	.
4A	.	2.a	2cc
4G	.	.	.
2F	.	.	1cc
.	.	4g	.
2A	.	[2f	.
=80	=80	=80	=80
1G	1r	2f]	1b-y
.	.	2e	.
1F	2r	2.f	2a
.	2f	.	[2cc
.	.	4g	.
=81	=81	=81	=81
2r	1f	1a	4cc]
.	.	.	4b-y
2F	.	.	4cc
.	.	.	4a
2G	1e	2r	2b-y
2A	.	2c	2cc
=82	=82	=82	=82
1B-y	2d	2.f	4f
.	.	.	4g
.	1f	.	4a
.	.	4g	4b-y
2r	.	1a	2cc
2F	4e	.	[2dd
.	4d	.	.
=83	=83	=83	=83
2G	1e	2r	2dd]
2A	.	2c	2cc
1B-y	2.d	2.f	2.dd
.	4e	4g	4cc
=84	=84	=84	=84
2r	2f	2a	2a
2G	2g	2d	2b-y
2A	2c	2r	2cc
2B-y	2g	2d	[2dd
=85	=85	=85	=85
2c	2e	2e	4dd]
.	.	.	4cc
2A	2c	2f	1cc
1G	1d	[1g	.
.	.	.	2bnXi
=86	=86	=86	=86
0c	0e	0g]	0cc
=87	=87	=87	=87
1.F	1.f	1.a	1.cc
2F	2e	2g	2cc
=88	=88	=88	=88
1F	2d	2f	1a
.	1c	2e	.
1G	.	1d	1b-y
.	2B-y	.	.
=89	=89	=89	=89
0C	0c	0e	0g
=90	=90	=90	=90
1.F	1.A	1.f	2r
.	.	.	1cc
4E	2B-y	2f	2dd
4D	.	.	.
=91	=91	=91	=91
1C	1c	1e	1ee
1BB-y	1F	1d	1ff
=92	=92	=92	=92
2C	1c	4e	1ee
.	.	4f	.
1c	.	4g	.
.	.	4e	.
.	2A	2a	2cc
[2B-y	[2d	[2g	[2dd
=93	=93	=93	=93
4B-]	2d]	4g]	4dd]
4A	.	4f	4cc
2F	1c	1f	2a
1G	.	.	1b-y
.	2B-y	2e	.
=94	=94	=94	=94
1F	2.c	1f	2.a
.	4d	.	4b-y
2E	2e	2g	2cc
[2D	[2f	[2a	[2dd
=95	=95	=95	=95
2D]	2f]	2a]	4dd]
.	.	.	4cc
2E	2e	2g	1cc
2F	1d	2f	.
2G	.	4e	2bnXi
.	.	4d	.
=96	=96	=96	=96
2C	0c	1e	0cc
1c	.	.	.
.	.	2r	.
2A	.	2c	.
=97	=97	=97	=97
2B-y	1r	2d	2r
2c	.	2e	1cc
1F	2r	2.f	.
.	2c	.	2a
.	.	4e	.
=98	=98	=98	=98
2B-y	2d	4f	2b-y
.	.	4g	.
2A	2e	2.a	2cc
1F	1f	.	2a
.	.	4g	.
.	.	4f	[2cc
.	.	4e	.
=99	=99	=99	=99
2r	1F	1f	2cc]
2F	.	.	2cc
2B-y	2r	2d	2dd
2A	[2c	2e	[2cc
=100	=100	=100	=100
1F	2c]	0f	2cc]
.	2c	.	4b-y
.	.	.	4a
2BB-y	2d	.	2b-y
[2F	2c	.	[2cc
=101	=101	=101	=101
2F]	2F	2r	4cc]
.	.	.	4b-y
2.F	1c	1f	4a
.	.	.	4g
.	.	.	2a
8EL	.	.	.
8FJ	.	.	.
2G	2B-y	2d	[2g
=102	=102	=102	=102
*	*	*M3/1	*
*	*	*met(3)	*
*	*	*Xtuplet	*
2C	2c	3e	4g]
.	.	.	4f
.	.	3A	.
2D	2F	.	1f
.	.	3B-y	.
=-	=-	=-	=-
*	*	*M2/1	*
*	*	*met(C|)	*
*	*	*tuplet	*
1C	1G	1c	.
.	.	.	2e
=103	=103	=103	=103
2r	0F	1A	0f
1c	.	.	.
.	.	2r	.
2A	.	2c	.
=104	=104	=104	=104
2B-y	1r	2d	2r
2c	.	2e	1cc
1F	2r	2.f	.
.	2c	.	2a
.	.	4e	.
=105	=105	=105	=105
2B-y	2d	4f	2b-y
.	.	4g	.
2A	2e	2.a	2cc
1F	1f	.	2a
.	.	4g	.
.	.	4f	[2cc
.	.	4e	.
=106	=106	=106	=106
2r	1F	1f	2cc]
2F	.	.	2cc
2B-y	2r	2d	2dd
2A	[2c	2e	[2cc
=107	=107	=107	=107
1F	2c]	0f	2cc]
.	2c	.	4b-y
.	.	.	4a
2BB-y	2d	.	2b-y
[2F	2c	.	[2cc
=108	=108	=108	=108
2F]	2F	2r	4cc]
.	.	.	4b-y
2.F	1c	1f	4a
.	.	.	4g
.	.	.	2a
8EL	.	.	.
8FJ	.	.	.
2G	2B-y	2d	[2g
=109	=109	=109	=109
*	*	*M3/1	*
*	*	*met(3)	*
*	*	*Xtuplet	*
2C	2c	3e	4g]
.	.	.	4f
.	.	3A	.
2D	2F	.	1f
.	.	3B-y	.
1C	1G	1c	.
.	.	.	2e
=110	=110	=110	=110
00Fl	00Fl	00cl	00fl
==	==	==	==
*-	*-	*-	*-
!!!system-decoration: [*]
!!!RDF**kern: i = editorial accidental
!!!RDF**kern: l = terminal long
!!!ENC: Benjamin Ory
!!!END: 2025/5/2
!!!EED: Benjamin Ory 2025/5/2
!!!EEV: 2025/05/02
!!!YEC: Copyright 2025 Benjamin Ory, All Rights Reserved
!!!ONB: Translated from MusicXML on 2025/05/02